X:13750
T:Quadrils (4). TLY.073
M:6/8
L:1/8
S:Wm.Tildesley,Swinton,Lancs.1860s.
R:Quadrille
O:England.
A:Lancashire.
N:DC at end of B music (not in Tillasley's hand
H:1860.
Z:vmp.Taz Tarry.
K:D
A| d2e f2 e| d3- d2 A| BGB AFA| BGB A2 A| d2e f2e| d3- d2 a|!
agf ede| d3- d2 :||
|:A/2G/2|F2 A d2 A| f2 d e2 c| d2 B A2 ^G| A3-A2 A|!
 e3 efe | d3 def| g3 g
ag | f3- f2 A| e3 efe| d3 d2 f| efe dcB| A2 A A2:|]
